X: 22
T: Musical Priest, The
Z: Sean Perry
S: https://thesession.org/tunes/73#setting50927
R: reel
M: 4/4
L: 1/8
K: Bmin
E|:FBBA ~B3d|cBAf ecBA|FBBA ~B3d|1 cBAc B2BA:|2 cBAc ~B3c||
|:d2dc dfed|c/B/A eA fAeA|dcBc defb|1 afec B2Bc:|2 cBAc ~B3c||
|:dB~B2 bafb|afec AB{c}BA|dB~B2 bafb|1 afec B2Bc:|2 afec B2BA||

